; generated by Slic3r 1.2.6 on 2015-02-05 at 14:56:12

; external perimeters extrusion width = 0.50mm
; perimeters extrusion width = 0.72mm
; infill extrusion width = 0.72mm
; solid infill extrusion width = 0.72mm
; top infill extrusion width = 0.72mm

M190 S110 ; set bed temperature
M104 S230 ; set temperature
G28 ; home all axes
G92 E0 ; set all axes to 0
M109 S230 ; wait for temperature to be reached
G21 ; set units to millimeters
G90 ; use absolute coordinates
M82 ; use absolute distances for extrusion
G1 Z2.000 F100 ; lift nozzle

G1 X131.072 Y72.341 F7800.000
G1 Z0 F7800.000
G1 E2.00000 F2400.00000
G1 X132.215 Y70.353 E2.10644 F1800.000
G1 X133.968 Y68.874 E2.21289
G1 X136.120 Y68.081 E2.31933
G1 X137.300 Y67.975 E2.37431
G1 X162.700 Y67.975 E3.55317
G1 X164.959 Y68.372 E3.65961
G1 X166.947 Y69.515 E3.76606 F1800.000
G1 X168.426 Y71.268 E3.87250
G1 X169.219 Y73.420 E3.97895
G1 X169.325 Y74.600 E4.03392
G1 X169.325 Y125.400 E6.39165
G1 X168.928 Y127.659 E6.49809
G1 X167.785 Y129.647 E6.60454
G1 X166.032 Y131.126 E6.71098
G1 X163.880 Y131.919 E6.81742
G1 X162.700 Y132.025 E6.87240
G1 X137.300 Y132.025 E8.05126
G1 X135.041 Y131.628 E8.15771
G1 X133.053 Y130.485 E8.26415
G1 X131.574 Y128.732 E8.37059
G1 X130.781 Y126.580 E8.47704
G1 X130.675 Y125.400 E8.53201
G1 X130.675 Y74.600 E10.88974
G1 X131.059 Y72.415 E10.99271
G1 E8.99271 F2400.00000
G92 E0
G1 Z2.350 F7800.000
G1 X161.135 Y123.835 F7800.000
G1 Z0.350 F7800.000
G1 E2.00000 F2400.00000
G1 X154.105 Y123.835 E2.32627 F1800.000
G1 X154.105 Y76.165 E4.53871
G1 X161.135 Y76.165 E4.86498
G1 X161.135 Y123.760 E7.07395
G1 X160.510 Y123.210 F7800.000
G1 X154.730 Y123.210 E7.34221 F1800.000
G1 X154.730 Y76.790 E9.49665
G1 X160.510 Y76.790 E9.76491
G1 X160.510 Y123.135 E11.91588
G1 X160.510 Y123.710 F7800.000
G1 X145.895 Y123.835 F7800.000
G1 X138.865 Y123.835 E12.24214 F1800.000
G1 X138.865 Y76.165 E14.45459
G1 X145.895 Y76.165 E14.78086
G1 X145.895 Y123.760 E16.98983
G1 X145.270 Y123.210 F7800.000
G1 X139.490 Y123.210 E17.25809 F1800.000
G1 X139.490 Y76.790 E19.41253
G1 X145.270 Y76.790 E19.68079
G1 X145.270 Y123.135 E21.83175
G1 X145.270 Y123.710 F7800.000
G1 X146.520 Y123.800 F7800.000
G1 X146.520 Y76.200 E24.04098 F1800.000
G1 X153.480 Y76.200 E24.36403
G1 X153.480 Y123.800 E26.57326
G1 X146.595 Y123.800 E26.89283
G1 X138.275 Y124.425 F7800.000
G1 X138.275 Y75.575 E29.16007 F1800.000
G1 X161.725 Y75.575 E30.24844
G1 X161.725 Y124.425 E32.51567
G1 X138.350 Y124.425 E33.60056
G1 X137.650 Y125.050 F7800.000
G1 X137.650 Y74.950 E35.92580 F1800.000
G1 X162.350 Y74.950 E37.07218
G1 X162.350 Y125.050 E39.39742
G1 X137.725 Y125.050 E40.54031
G1 X137.900 Y124.617 F7800.000
G1 X147.192 Y123.433 F7800.000
G1 X146.887 Y123.128 E40.56047 F1800.000
G1 X146.887 Y122.238 E40.60202
G1 X148.082 Y123.433 E40.68095
G1 X148.971 Y123.433 E40.72250
G1 X146.887 Y121.349 E40.86019
G1 X146.887 Y120.459 E40.90174
G1 X149.861 Y123.433 E41.09820
G1 X150.750 Y123.433 E41.13976
G1 X146.887 Y119.570 E41.39498
G1 X146.887 Y118.680 E41.43654
G1 X151.640 Y123.433 E41.75053
G1 X152.529 Y123.433 E41.79208
G1 X146.887 Y117.791 E42.16484
G1 X146.887 Y116.901 E42.20639
G1 X153.113 Y123.127 E42.61771
G1 X153.113 Y122.238 E42.65927
G1 X146.887 Y116.012 E43.07058
G1 X146.887 Y115.122 E43.11214
G1 X153.113 Y121.348 E43.52346
G1 X153.113 Y120.458 E43.56501
G1 X146.887 Y114.233 E43.97633
G1 X146.887 Y113.343 E44.01788
G1 X153.113 Y119.569 E44.42920
G1 X153.113 Y118.679 E44.47076
G1 X146.887 Y112.454 E44.88207
G1 X146.887 Y111.564 E44.92363
G1 X153.113 Y117.790 E45.33495
G1 X153.113 Y116.900 E45.37650
G1 X146.887 Y110.675 E45.78782
G1 X146.887 Y109.785 E45.82937
G1 X153.113 Y116.011 E46.24069
G1 X153.113 Y115.121 E46.28225
G1 X146.887 Y108.896 E46.69356
G1 X146.887 Y108.006 E46.73512
G1 X153.113 Y114.232 E47.14644
G1 X153.113 Y113.342 E47.18799
G1 X146.887 Y107.117 E47.59931
G1 X146.887 Y106.227 E47.64086
G1 X153.113 Y112.453 E48.05218
G1 X153.113 Y111.563 E48.09373
G1 X146.887 Y105.338 E48.50505
G1 X146.887 Y104.448 E48.54661
G1 X153.113 Y110.674 E48.95792
G1 X153.113 Y109.784 E48.99948
G1 X146.887 Y103.558 E49.41080
G1 X146.887 Y102.669 E49.45235
G1 X153.113 Y108.895 E49.86367
G1 X153.113 Y108.005 E49.90522
G1 X146.887 Y101.779 E50.31654
G1 X146.887 Y100.890 E50.35810
G1 X153.113 Y107.116 E50.76941
G1 X153.113 Y106.226 E50.81097
G1 X146.887 Y100.000 E51.22229
G1 X146.887 Y99.111 E51.26384
G1 X153.113 Y105.337 E51.67516
G1 X153.113 Y104.447 E51.71671
G1 X146.887 Y98.221 E52.12803
G1 X146.887 Y97.332 E52.16959
G1 X153.113 Y103.558 E52.58090
G1 X153.113 Y102.668 E52.62246
G1 X146.887 Y96.442 E53.03378
G1 X146.887 Y95.553 E53.07533
G1 X153.113 Y101.779 E53.48665
G1 X153.113 Y100.889 E53.52820
G1 X146.887 Y94.663 E53.93952
G1 X146.887 Y93.774 E53.98108
G1 X153.113 Y100.000 E54.39239
G1 X153.113 Y99.110 E54.43395
G1 X146.887 Y92.884 E54.84527
G1 X146.887 Y91.995 E54.88682
G1 X153.113 Y98.221 E55.29814
G1 X153.113 Y97.331 E55.33969
G1 X146.887 Y91.105 E55.75101
G1 X146.887 Y90.216 E55.79256
G1 X153.113 Y96.442 E56.20388
G1 X153.113 Y95.552 E56.24544
G1 X146.887 Y89.326 E56.65675
G1 X146.887 Y88.437 E56.69831
G1 X153.113 Y94.663 E57.10963
G1 X153.113 Y93.773 E57.15118
G1 X146.887 Y87.547 E57.56250
G1 X146.887 Y86.658 E57.60405
G1 X153.113 Y92.883 E58.01537
G1 X153.113 Y91.994 E58.05693
G1 X146.887 Y85.768 E58.46824
G1 X146.887 Y84.879 E58.50980
G1 X153.113 Y91.104 E58.92112
G1 X153.113 Y90.215 E58.96267
G1 X146.887 Y83.989 E59.37399
G1 X146.887 Y83.100 E59.41554
G1 X153.113 Y89.325 E59.82686
G1 X153.113 Y88.436 E59.86842
G1 X146.887 Y82.210 E60.27973
G1 X146.887 Y81.321 E60.32129
G1 X153.113 Y87.546 E60.73261
G1 X153.113 Y86.657 E60.77416
G1 X146.887 Y80.431 E61.18548
G1 X146.887 Y79.542 E61.22703
G1 X153.113 Y85.767 E61.63835
G1 X153.113 Y84.878 E61.67990
G1 X146.887 Y78.652 E62.09122
G1 X146.887 Y77.763 E62.13278
G1 X153.113 Y83.988 E62.54409
G1 X153.113 Y83.099 E62.58565
G1 X146.887 Y76.873 E62.99697
G1 X147.471 Y76.567 E63.02775
G1 X153.113 Y82.209 E63.40051
G1 X153.113 Y81.320 E63.44206
G1 X148.360 Y76.567 E63.75606
G1 X149.250 Y76.567 E63.79761
G1 X153.113 Y80.430 E64.05284
G1 X153.113 Y79.541 E64.09439
G1 X150.139 Y76.567 E64.29085
G1 X151.029 Y76.567 E64.33241
G1 X153.113 Y78.651 E64.47010
G1 X153.113 Y77.762 E64.51166
G1 X151.918 Y76.567 E64.59058
G1 X152.808 Y76.567 E64.63214
G1 X153.113 Y76.872 E64.65229
G1 E62.65229 F2400.00000
G92 E0
G1 Z2.350 F7800.000
G1 X154.285 Y123.655 F7800.000
G1 Z0.650 F7800.000
G1 E2.00000 F2400.00000
G1 X154.285 Y76.345 E3.97125 F3600.000
G1 X160.955 Y76.345 E4.24918
G1 X160.955 Y123.655 E6.22043
G1 X154.360 Y123.655 E6.49523
G1 X154.830 Y123.110 F7800.000
G1 X154.830 Y76.890 E7.77702 F1800.000
G1 X160.410 Y76.890 E7.93177
G1 X160.410 Y123.110 E9.21356
G1 X154.905 Y123.110 E9.36622
G1 X154.330 Y123.110 F7800.000
G1 X145.715 Y123.655 F7800.000
G1 X139.045 Y123.655 E9.64415 F3600.000
G1 X139.045 Y76.345 E11.61540
G1 X145.715 Y76.345 E11.89332
G1 X145.715 Y123.580 E13.86145
G1 X145.170 Y123.110 F7800.000
G1 X139.590 Y123.110 E14.01620 F1800.000
G1 X139.590 Y76.890 E15.29799
G1 X145.170 Y76.890 E15.45274
G1 X145.170 Y123.035 E16.73245
G1 X145.170 Y123.610 F7800.000
G1 X146.370 Y123.950 F7800.000
G1 X146.370 Y76.050 E18.72832 F3600.000
G1 X153.630 Y76.050 E19.03086
G1 X153.630 Y123.950 E21.02673
G1 X146.445 Y123.950 E21.32614
G1 X138.095 Y124.605 F7800.000
G1 X138.095 Y75.395 E23.37655 F3600.000
G1 X161.905 Y75.395 E24.36863
G1 X161.905 Y124.605 E26.41904
G1 X138.170 Y124.605 E27.40799
G1 X137.550 Y125.150 F7800.000
G1 X137.550 Y74.850 E28.80293 F1800.000
G1 X162.450 Y74.850 E29.49347
G1 X162.450 Y125.150 E30.88841
G1 X137.625 Y125.150 E31.57687
G1 X137.800 Y124.717 F7800.000
G1 X152.925 Y123.563 F7800.000
G1 X153.243 Y123.245 E31.59566 F1200.000
G1 X153.243 Y122.316 E31.63455
G1 X151.996 Y123.563 E31.70833
G1 X151.066 Y123.563 E31.74721
G1 X153.243 Y121.386 E31.87599
G1 X153.243 Y120.457 E31.91487
G1 X150.137 Y123.563 E32.09863
G1 X149.207 Y123.563 E32.13752
G1 X153.243 Y119.527 E32.37627
G1 X153.243 Y118.598 E32.41515
G1 X148.278 Y123.563 E32.70889
G1 X147.349 Y123.563 E32.74778
G1 X153.243 Y117.669 E33.09651
G1 X153.243 Y116.739 E33.13539
G1 X146.757 Y123.224 E33.51910
G1 X146.757 Y122.295 E33.55799
G1 X153.243 Y115.810 E33.94170
G1 X153.243 Y114.880 E33.98058
G1 X146.757 Y121.366 E34.36430
G1 X146.757 Y120.436 E34.40318
G1 X153.243 Y113.951 E34.78689
G1 X153.243 Y113.022 E34.82577
G1 X146.757 Y119.507 E35.20949
G1 X146.757 Y118.578 E35.24837
G1 X153.243 Y112.092 E35.63208
G1 X153.243 Y111.163 E35.67097
G1 X146.757 Y117.648 E36.05468
G1 X146.757 Y116.719 E36.09356
G1 X153.243 Y110.233 E36.47728
G1 X153.243 Y109.304 E36.51616
G1 X146.757 Y115.789 E36.89987
G1 X146.757 Y114.860 E36.93876
G1 X153.243 Y108.375 E37.32247
G1 X153.243 Y107.445 E37.36135
G1 X146.757 Y113.931 E37.74506
G1 X146.757 Y113.001 E37.78395
G1 X153.243 Y106.516 E38.16766
G1 X153.243 Y105.587 E38.20654
G1 X146.757 Y112.072 E38.59026
G1 X146.757 Y111.142 E38.62914
G1 X153.243 Y104.657 E39.01285
G1 X153.243 Y103.728 E39.05174
G1 X146.757 Y110.213 E39.43545
G1 X146.757 Y109.284 E39.47433
G1 X153.243 Y102.798 E39.85804
G1 X153.243 Y101.869 E39.89693
G1 X146.757 Y108.354 E40.28064
G1 X146.757 Y107.425 E40.31952
G1 X153.243 Y100.940 E40.70324
G1 X153.243 Y100.010 E40.74212
G1 X146.757 Y106.495 E41.12583
G1 X146.757 Y105.566 E41.16472
G1 X153.243 Y99.081 E41.54843
G1 X153.243 Y98.151 E41.58731
G1 X146.757 Y104.637 E41.97102
G1 X146.757 Y103.707 E42.00991
G1 X153.243 Y97.222 E42.39362
G1 X153.243 Y96.293 E42.43250
G1 X146.757 Y102.778 E42.81622
G1 X146.757 Y101.849 E42.85510
G1 X153.243 Y95.363 E43.23881
G1 X153.243 Y94.434 E43.27770
G1 X146.757 Y100.919 E43.66141
G1 X146.757 Y99.990 E43.70029
G1 X153.243 Y93.504 E44.08400
G1 X153.243 Y92.575 E44.12289
G1 X146.757 Y99.060 E44.50660
G1 X146.757 Y98.131 E44.54548
G1 X153.243 Y91.646 E44.92920
G1 X153.243 Y90.716 E44.96808
G1 X146.757 Y97.202 E45.35179
G1 X146.757 Y96.272 E45.39068
G1 X153.243 Y89.787 E45.77439
G1 X153.243 Y88.858 E45.81327
G1 X146.757 Y95.343 E46.19698
G1 X146.757 Y94.413 E46.23587
G1 X153.243 Y87.928 E46.61958
G1 X153.243 Y86.999 E46.65846
G1 X146.757 Y93.484 E47.04218
G1 X146.757 Y92.555 E47.08106
G1 X153.243 Y86.069 E47.46477
G1 X153.243 Y85.140 E47.50366
G1 X146.757 Y91.625 E47.88737
G1 X146.757 Y90.696 E47.92625
G1 X153.243 Y84.211 E48.30996
G1 X153.243 Y83.281 E48.34885
G1 X146.757 Y89.766 E48.73256
G1 X146.757 Y88.837 E48.77144
G1 X153.243 Y82.352 E49.15516
G1 X153.243 Y81.422 E49.19404
G1 X146.757 Y87.908 E49.57775
G1 X146.757 Y86.978 E49.61664
G1 X153.243 Y80.493 E50.00035
G1 X153.243 Y79.564 E50.03923
G1 X146.757 Y86.049 E50.42294
G1 X146.757 Y85.120 E50.46183
G1 X153.243 Y78.634 E50.84554
G1 X153.243 Y77.705 E50.88442
G1 X146.757 Y84.190 E51.26814
G1 X146.757 Y83.261 E51.30702
G1 X153.243 Y76.775 E51.69073
G1 X152.651 Y76.437 E51.71923
G1 X146.757 Y82.331 E52.06796
G1 X146.757 Y81.402 E52.10684
G1 X151.722 Y76.437 E52.40058
G1 X150.793 Y76.437 E52.43946
G1 X146.757 Y80.473 E52.67821
G1 X146.757 Y79.543 E52.71710
G1 X149.863 Y76.437 E52.90086
G1 X148.934 Y76.437 E52.93974
G1 X146.757 Y78.614 E53.06851
G1 X146.757 Y77.684 E53.10739
G1 X148.004 Y76.437 E53.18118
G1 X147.075 Y76.437 E53.22006
G1 X146.757 Y76.755 E53.23885
G1 E51.23885 F2400.00000
G92 E0
G1 Z2.650 F7800.000
G1 X154.285 Y123.655 F7800.000
G1 Z0.950 F7800.000
G1 E2.00000 F2400.00000
G1 X154.285 Y76.345 E3.97125 F3600.000
G1 X160.955 Y76.345 E4.24918
G1 X160.955 Y123.655 E6.22043
G1 X154.360 Y123.655 E6.49523
G1 X154.830 Y123.110 F7800.000
G1 X154.830 Y76.890 E7.77702 F1800.000
G1 X160.410 Y76.890 E7.93177
G1 X160.410 Y123.110 E9.21356
G1 X154.905 Y123.110 E9.36622
G1 X154.330 Y123.110 F7800.000
G1 X145.715 Y123.655 F7800.000
G1 X139.045 Y123.655 E9.64415 F3600.000
G1 X139.045 Y76.345 E11.61540
G1 X145.715 Y76.345 E11.89332
G1 X145.715 Y123.580 E13.86145
G1 X145.170 Y123.110 F7800.000
G1 X139.590 Y123.110 E14.01620 F1800.000
G1 X139.590 Y76.890 E15.29799
G1 X145.170 Y76.890 E15.45274
G1 X145.170 Y123.035 E16.73245
G1 X145.170 Y123.610 F7800.000
G1 X146.370 Y123.950 F7800.000
G1 X146.370 Y76.050 E18.72832 F3600.000
G1 X153.630 Y76.050 E19.03086
G1 X153.630 Y123.950 E21.02673
G1 X146.445 Y123.950 E21.32614
G1 X138.095 Y124.605 F7800.000
G1 X138.095 Y75.395 E23.37655 F3600.000
G1 X161.905 Y75.395 E24.36863
G1 X161.905 Y124.605 E26.41904
G1 X138.170 Y124.605 E27.40799
G1 X137.550 Y125.150 F7800.000
G1 X137.550 Y74.850 E28.80293 F1800.000
G1 X162.450 Y74.850 E29.49347
G1 X162.450 Y125.150 E30.88841
G1 X137.625 Y125.150 E31.57687
G1 X137.800 Y124.717 F7800.000
G1 X147.075 Y123.563 F7800.000
G1 X146.757 Y123.245 E31.59566 F1200.000
G1 X146.757 Y122.316 E31.63454
G1 X148.004 Y123.563 E31.70833
G1 X148.934 Y123.563 E31.74721
G1 X146.757 Y121.386 E31.87598
G1 X146.757 Y120.457 E31.91486
G1 X149.863 Y123.563 E32.09863
G1 X150.793 Y123.563 E32.13751
G1 X146.757 Y119.527 E32.37626
G1 X146.757 Y118.598 E32.41514
G1 X151.722 Y123.563 E32.70888
G1 X152.651 Y123.563 E32.74776
G1 X146.757 Y117.669 E33.09649
G1 X146.757 Y116.739 E33.13538
G1 X153.243 Y123.225 E33.51909
G1 X153.243 Y122.295 E33.55797
G1 X146.757 Y115.810 E33.94168
G1 X146.757 Y114.880 E33.98057
G1 X153.243 Y121.366 E34.36428
G1 X153.243 Y120.436 E34.40316
G1 X146.757 Y113.951 E34.78688
G1 X146.757 Y113.022 E34.82576
G1 X153.243 Y119.507 E35.20947
G1 X153.243 Y118.578 E35.24836
G1 X146.757 Y112.092 E35.63207
G1 X146.757 Y111.163 E35.67095
G1 X153.243 Y117.648 E36.05466
G1 X153.243 Y116.719 E36.09355
G1 X146.757 Y110.234 E36.47726
G1 X146.757 Y109.304 E36.51614
G1 X153.243 Y115.789 E36.89986
G1 X153.243 Y114.860 E36.93874
G1 X146.757 Y108.375 E37.32245
G1 X146.757 Y107.445 E37.36134
G1 X153.243 Y113.931 E37.74505
G1 X153.243 Y113.001 E37.78393
G1 X146.757 Y106.516 E38.16764
G1 X146.757 Y105.587 E38.20653
G1 X153.243 Y112.072 E38.59024
G1 X153.243 Y111.142 E38.62912
G1 X146.757 Y104.657 E39.01284
G1 X146.757 Y103.728 E39.05172
G1 X153.243 Y110.213 E39.43543
G1 X153.243 Y109.284 E39.47432
G1 X146.757 Y102.798 E39.85803
G1 X146.757 Y101.869 E39.89691
G1 X153.243 Y108.354 E40.28062
G1 X153.243 Y107.425 E40.31951
G1 X146.757 Y100.940 E40.70322
G1 X146.757 Y100.010 E40.74210
G1 X153.243 Y106.496 E41.12582
G1 X153.243 Y105.566 E41.16470
G1 X146.757 Y99.081 E41.54841
G1 X146.757 Y98.151 E41.58730
G1 X153.243 Y104.637 E41.97101
G1 X153.243 Y103.707 E42.00989
G1 X146.757 Y97.222 E42.39360
G1 X146.757 Y96.293 E42.43249
G1 X153.243 Y102.778 E42.81620
G1 X153.243 Y101.849 E42.85508
G1 X146.757 Y95.363 E43.23880
G1 X146.757 Y94.434 E43.27768
G1 X153.243 Y100.919 E43.66139
G1 X153.243 Y99.990 E43.70028
G1 X146.757 Y93.505 E44.08399
G1 X146.757 Y92.575 E44.12287
G1 X153.243 Y99.060 E44.50658
G1 X153.243 Y98.131 E44.54547
G1 X146.757 Y91.646 E44.92918
G1 X146.757 Y90.716 E44.96806
G1 X153.243 Y97.202 E45.35178
G1 X153.243 Y96.272 E45.39066
G1 X146.757 Y89.787 E45.77437
G1 X146.757 Y88.858 E45.81326
G1 X153.243 Y95.343 E46.19697
G1 X153.243 Y94.413 E46.23585
G1 X146.757 Y87.928 E46.61957
G1 X146.757 Y86.999 E46.65845
G1 X153.243 Y93.484 E47.04216
G1 X153.243 Y92.555 E47.08104
G1 X146.757 Y86.069 E47.46476
G1 X146.757 Y85.140 E47.50364
G1 X153.243 Y91.625 E47.88735
G1 X153.243 Y90.696 E47.92624
G1 X146.757 Y84.211 E48.30995
G1 X146.757 Y83.281 E48.34883
G1 X153.243 Y89.766 E48.73255
G1 X153.243 Y88.837 E48.77143
G1 X146.757 Y82.352 E49.15514
G1 X146.757 Y81.422 E49.19402
G1 X153.243 Y87.908 E49.57774
G1 X153.243 Y86.978 E49.61662
G1 X146.757 Y80.493 E50.00033
G1 X146.757 Y79.564 E50.03922
G1 X153.243 Y86.049 E50.42293
G1 X153.243 Y85.120 E50.46181
G1 X146.757 Y78.634 E50.84553
G1 X146.757 Y77.705 E50.88441
G1 X153.243 Y84.190 E51.26812
G1 X153.243 Y83.261 E51.30700
G1 X146.757 Y76.775 E51.69072
G1 X147.349 Y76.437 E51.71921
G1 X153.243 Y82.331 E52.06794
G1 X153.243 Y81.402 E52.10683
G1 X148.278 Y76.437 E52.40057
G1 X149.207 Y76.437 E52.43945
G1 X153.243 Y80.473 E52.67820
G1 X153.243 Y79.543 E52.71709
G1 X150.137 Y76.437 E52.90085
G1 X151.066 Y76.437 E52.93973
G1 X153.243 Y78.614 E53.06851
G1 X153.243 Y77.684 E53.10739
