; generated by Slic3r 1.2.6 on 2015-02-04 at 13:14:28

; external perimeters extrusion width = 0.50mm
; perimeters extrusion width = 0.72mm
; infill extrusion width = 0.72mm
; solid infill extrusion width = 0.72mm
; top infill extrusion width = 0.72mm

M107
M104 S230 ; set temperature
G28 ; home all axes
G1 Z5 F5000 ; lift nozzle

M109 S230 ; wait for temperature to be reached
G21 ; set units to millimeters
G90 ; use absolute coordinates
M82 ; use absolute distances for extrusion
G92 E0
G1 Z0.350 F7800.000
G1 E-2.00000 F2400.00000
G92 E0
G1 X70.020 Y75.367 F7800.000
G1 E2.00000 F2400.00000
G1 X70.904 Y74.625 E2.03573 F1800.000
G1 X71.081 Y74.501 E2.04241
G1 X72.081 Y73.924 E2.07814
G1 X72.277 Y73.833 E2.08482
G1 X73.362 Y73.438 E2.12054
G1 X73.570 Y73.382 E2.12722
G1 X74.708 Y73.181 E2.16295
G1 X75.500 Y73.137 E2.18750
G1 X124.500 Y73.137 E3.70363
G1 X125.077 Y73.162 E3.72151
G1 X125.292 Y73.181 E3.72819 F1800.000
G1 X126.430 Y73.382 E3.76392
G1 X126.638 Y73.438 E3.77060
G1 X127.723 Y73.833 E3.80632
G1 X127.919 Y73.924 E3.81300
G1 X128.919 Y74.501 E3.84873
G1 X129.096 Y74.625 E3.85541
G1 X129.980 Y75.367 E3.89114
G1 X130.133 Y75.520 E3.89782
G1 X130.875 Y76.404 E3.93354
G1 X130.999 Y76.581 E3.94022
G1 X131.576 Y77.581 E3.97596
G1 X131.667 Y77.777 E3.98263
G1 X132.062 Y78.862 E4.01836
G1 X132.118 Y79.070 E4.02504
G1 X132.319 Y80.208 E4.06077
G1 X132.363 Y81.000 E4.08532
G1 X132.363 Y119.000 E5.26109
G1 X132.319 Y119.792 E5.28565
G1 X132.118 Y120.930 E5.32138
G1 X132.062 Y121.138 E5.32806
G1 X131.667 Y122.223 E5.36379
G1 X131.576 Y122.419 E5.37046
G1 X130.999 Y123.419 E5.40619
G1 X130.875 Y123.596 E5.41287
G1 X130.133 Y124.480 E5.44860
G1 X129.980 Y124.633 E5.45528
G1 X129.096 Y125.375 E5.49101
G1 X128.919 Y125.499 E5.49768
G1 X127.919 Y126.076 E5.53341
G1 X127.723 Y126.167 E5.54009
G1 X126.638 Y126.562 E5.57582
G1 X126.430 Y126.618 E5.58250
G1 X125.292 Y126.819 E5.61823
G1 X124.500 Y126.863 E5.64278
G1 X75.500 Y126.863 E7.15891
G1 X74.708 Y126.819 E7.18346
G1 X73.570 Y126.618 E7.21919
G1 X73.362 Y126.562 E7.22587
G1 X72.277 Y126.167 E7.26159
G1 X72.081 Y126.076 E7.26828
G1 X71.081 Y125.499 E7.30401
G1 X70.904 Y125.375 E7.31068
G1 X70.020 Y124.633 E7.34641
G1 X69.867 Y124.480 E7.35309
G1 X69.125 Y123.596 E7.38882
G1 X69.001 Y123.419 E7.39550
G1 X68.424 Y122.419 E7.43123
G1 X68.333 Y122.223 E7.43790
G1 X67.938 Y121.138 E7.47363
G1 X67.882 Y120.930 E7.48031
G1 X67.681 Y119.792 E7.51604
G1 X67.637 Y119.000 E7.54060
G1 X67.637 Y81.000 E8.71637
G1 X67.662 Y80.423 E8.73425
G1 X67.681 Y80.208 E8.74093
G1 X67.882 Y79.070 E8.77666
G1 X67.938 Y78.862 E8.78334
G1 X68.333 Y77.777 E8.81906
G1 X68.424 Y77.581 E8.82574
G1 X69.001 Y76.581 E8.86147
G1 X69.125 Y76.404 E8.86815
G1 X69.967 Y75.420 E8.90822
G1 E6.90822 F2400.00000
G92 E0
G1 X123.233 Y102.227 F7800.000
G1 E2.00000 F2400.00000
G1 X122.754 Y102.290 E2.01497 F1800.000
G1 X122.274 Y102.227 E2.02993
G1 X121.827 Y102.042 E2.04490
G1 X121.443 Y101.748 E2.05987
G1 X121.149 Y101.364 E2.07484
G1 X120.964 Y100.917 E2.08980
G1 X120.901 Y100.437 E2.10477
G1 X120.964 Y99.958 E2.11974
G1 X121.149 Y99.511 E2.13471
G1 X121.443 Y99.127 E2.14967
G1 X121.827 Y98.833 E2.16464
G1 X122.274 Y98.647 E2.17961
G1 X122.717 Y98.589 E2.19343 F1800.000
G1 X123.230 Y98.646 E2.20940
G1 X123.680 Y98.833 E2.22448
G1 X124.064 Y99.127 E2.23945
G1 X124.358 Y99.511 E2.25441
G1 X124.544 Y99.958 E2.26938
G1 X124.607 Y100.441 E2.28446
G1 X124.529 Y100.951 E2.30043
G1 X124.358 Y101.364 E2.31425
G1 X124.064 Y101.748 E2.32922
G1 X123.680 Y102.042 E2.34419
G1 X123.303 Y102.199 E2.35683
G1 X123.088 Y102.689 F7800.000
G1 E0.35683 F2400.00000
G92 E0
G1 X114.025 Y105.025 F7800.000
G1 E2.00000 F2400.00000
G1 X114.025 Y95.475 E2.29550 F1800.000
G1 X88.027 Y95.475 E3.09990
G1 X88.083 Y95.900 E3.11317
G1 X88.012 Y96.439 E3.13000
G1 X87.804 Y96.942 E3.14682
G1 X87.473 Y97.373 E3.16365
G1 X87.042 Y97.704 E3.18048
G1 X86.539 Y97.912 E3.19731
G1 X86.000 Y97.983 E3.21413
G1 X85.461 Y97.912 E3.23096
G1 X84.990 Y97.717 E3.24672
G1 X84.533 Y97.381 E3.26428
G1 X84.196 Y96.942 E3.28142
G1 X83.988 Y96.439 E3.29825
G1 X83.915 Y95.890 E3.31539
G1 X83.979 Y95.475 E3.32838
G1 X83.025 Y95.475 E3.35789
G1 X83.025 Y89.525 E3.54198
G1 X119.092 Y89.525 E4.65794
G1 X119.092 Y110.475 E5.30615
G1 X83.025 Y110.475 E6.42211
G1 X83.025 Y105.025 E6.59073
G1 X113.950 Y105.025 E7.54759
G1 X114.650 Y105.650 F7800.000
G1 X114.650 Y94.850 E7.88176 F1800.000
G1 X87.010 Y94.850 E8.73697
G1 X87.258 Y95.173 E8.74959
G1 X87.404 Y95.524 E8.76132
G1 X87.453 Y95.900 E8.77306
G1 X87.404 Y96.276 E8.78480
G1 X87.258 Y96.627 E8.79653
G1 X87.027 Y96.927 E8.80827
G1 X86.727 Y97.158 E8.82001
G1 X86.376 Y97.304 E8.83174
G1 X86.000 Y97.353 E8.84348
G1 X85.624 Y97.304 E8.85521
G1 X85.300 Y97.169 E8.86608
G1 X84.975 Y96.930 E8.87855
G1 X84.742 Y96.627 E8.89040
G1 X84.596 Y96.276 E8.90214
G1 X84.547 Y95.896 E8.91399
G1 X84.607 Y95.498 E8.92646
G1 X84.742 Y95.173 E8.93732
G1 X84.990 Y94.850 E8.94994
G1 X83.650 Y94.850 E8.99140
G1 X83.650 Y90.150 E9.13682
G1 X118.467 Y90.150 E10.21411
G1 X118.467 Y109.850 E10.82365
G1 X83.650 Y109.850 E11.90094
G1 X83.650 Y105.650 E12.03089
G1 X114.575 Y105.650 E12.98775
G1 X114.400 Y105.217 F7800.000
G1 X81.208 Y100.550 F7800.000
G1 X81.121 Y101.120 E13.00561 F1800.000
G1 X80.889 Y101.679 E13.02432
G1 X80.495 Y102.193 E13.04438
G1 X79.980 Y102.588 E13.06444
G1 X79.381 Y102.836 E13.08450
G1 X78.739 Y102.921 E13.10456
G1 X78.096 Y102.836 E13.12461
G1 X77.537 Y102.605 E13.14332
G1 X76.981 Y102.195 E13.16470
G1 X76.571 Y101.639 E13.18608
G1 X76.340 Y101.080 E13.20479
G1 X76.255 Y100.437 E13.22485
G1 X76.340 Y99.795 E13.24490
G1 X76.588 Y99.196 E13.26496
G1 X76.983 Y98.681 E13.28502
G1 X77.497 Y98.287 E13.30508
G1 X78.096 Y98.039 E13.32514
G1 X78.695 Y97.960 E13.34385 F1800.000
G1 X79.372 Y98.035 E13.36491
G1 X79.980 Y98.287 E13.38528
G1 X80.495 Y98.681 E13.40534
G1 X80.889 Y99.196 E13.42540
G1 X81.137 Y99.795 E13.44546
G1 X81.219 Y100.476 E13.46668
G1 X80.590 Y100.456 F7800.000
G1 X80.514 Y100.951 E13.48219 F1800.000
G1 X80.343 Y101.364 E13.49601
G1 X80.049 Y101.748 E13.51098
G1 X79.665 Y102.042 E13.52595
G1 X79.218 Y102.227 E13.54091
G1 X78.739 Y102.290 E13.55588
G1 X78.259 Y102.227 E13.57085
G1 X77.846 Y102.056 E13.58467
G1 X77.428 Y101.748 E13.60075
G1 X77.120 Y101.330 E13.61684
G1 X76.949 Y100.917 E13.63066
G1 X76.886 Y100.437 E13.64562
G1 X76.949 Y99.958 E13.66059
G1 X77.134 Y99.511 E13.67556
G1 X77.428 Y99.127 E13.69053
G1 X77.812 Y98.833 E13.70549
G1 X78.259 Y98.647 E13.72046
G1 X78.702 Y98.589 E13.73428 F1800.000
G1 X79.215 Y98.646 E13.75025
G1 X79.665 Y98.833 E13.76533
G1 X80.049 Y99.127 E13.78030
G1 X80.343 Y99.511 E13.79527
G1 X80.529 Y99.958 E13.81023
G1 X80.584 Y100.381 E13.82345
G1 X81.007 Y100.731 F7800.000
G1 X105.286 Y100.500 F7800.000
G1 X105.377 Y99.813 E13.84490 F1800.000
G1 X105.629 Y99.170 E13.86625
G1 X106.081 Y98.581 E13.88923
G1 X106.643 Y98.150 E13.91115
G1 X107.298 Y97.879 E13.93306
G1 X107.959 Y97.792 E13.95371 F1800.000
G1 X108.687 Y97.872 E13.97636
G1 X109.357 Y98.150 E13.99880
G1 X109.919 Y98.581 E14.02072
G1 X110.350 Y99.143 E14.04263
G1 X110.621 Y99.798 E14.06455
G1 X110.714 Y100.500 E14.08647
G1 X110.623 Y101.187 E14.10793
G1 X110.371 Y101.830 E14.12927
G1 X109.919 Y102.419 E14.15225
G1 X109.357 Y102.850 E14.17417
G1 X108.702 Y103.121 E14.19609
G1 X108.000 Y103.214 E14.21801
G1 X107.298 Y103.121 E14.23992
G1 X106.643 Y102.850 E14.26184
G1 X106.081 Y102.419 E14.28376
G1 X105.650 Y101.857 E14.30568
G1 X105.379 Y101.202 E14.32760
G1 X105.296 Y100.574 E14.34720
G1 X105.917 Y100.500 F7800.000
G1 X105.986 Y99.970 E14.36374 F1800.000
G1 X106.179 Y99.481 E14.38000
G1 X106.527 Y99.027 E14.39770
G1 X106.958 Y98.696 E14.41453
G1 X107.461 Y98.488 E14.43136
G1 X107.966 Y98.421 E14.44711 F1800.000
G1 X108.530 Y98.484 E14.46467
G1 X109.042 Y98.696 E14.48182
G1 X109.473 Y99.027 E14.49864
G1 X109.804 Y99.458 E14.51547
G1 X110.012 Y99.961 E14.53230
G1 X110.083 Y100.500 E14.54913
G1 X110.014 Y101.030 E14.56567
G1 X109.821 Y101.519 E14.58193
G1 X109.473 Y101.973 E14.59963
G1 X109.042 Y102.304 E14.61646
G1 X108.539 Y102.512 E14.63329
G1 X108.000 Y102.583 E14.65011
G1 X107.461 Y102.512 E14.66694
G1 X106.958 Y102.304 E14.68377
G1 X106.527 Y101.973 E14.70060
G1 X106.196 Y101.542 E14.71742
G1 X105.988 Y101.039 E14.73425
G1 X105.926 Y100.574 E14.74876
G1 X106.547 Y100.500 F7800.000
G1 X106.596 Y100.127 E14.76039 F1800.000
G1 X106.728 Y99.791 E14.77156
G1 X106.973 Y99.473 E14.78399
G1 X107.273 Y99.242 E14.79573
G1 X107.624 Y99.096 E14.80746
G1 X107.972 Y99.051 E14.81833 F1800.000
G1 X108.373 Y99.095 E14.83080
G1 X108.727 Y99.242 E14.84265
G1 X109.027 Y99.473 E14.85439
G1 X109.258 Y99.773 E14.86612
G1 X109.404 Y100.124 E14.87786
G1 X109.453 Y100.500 E14.88960
G1 X109.404 Y100.873 E14.90123
G1 X109.272 Y101.209 E14.91239
G1 X109.027 Y101.527 E14.92483
G1 X108.727 Y101.758 E14.93656
G1 X108.376 Y101.904 E14.94830
G1 X108.000 Y101.953 E14.96004
G1 X107.624 Y101.904 E14.97177
G1 X107.273 Y101.758 E14.98351
G1 X106.973 Y101.527 E14.99525
G1 X106.742 Y101.227 E15.00698
G1 X106.596 Y100.876 E15.01872
G1 X106.557 Y100.574 E15.02813
G1 X106.230 Y100.298 F7800.000
G1 E13.02813 F2400.00000
G92 E0
G1 X119.717 Y111.100 F7800.000
G1 E2.00000 F2400.00000
G1 X119.717 Y101.968 E2.28253 F1800.000
G1 X119.971 Y101.882 E2.29085
G1 X120.552 Y102.639 E2.32037
G1 X121.197 Y103.134 E2.34552
G1 X121.948 Y103.445 E2.37067
G1 X122.754 Y103.551 E2.39582
G1 X123.560 Y103.445 E2.42096
G1 X124.138 Y103.205 E2.44034
G1 X124.138 Y118.638 E2.91785
G1 X75.862 Y118.638 E4.41158
G1 X75.862 Y102.164 E4.92130
G1 X76.120 Y102.080 E4.92970
G1 X76.534 Y102.642 E4.95131
G1 X77.228 Y103.153 E4.97799
G1 X77.933 Y103.445 E5.00159
G1 X78.739 Y103.551 E5.02673
G1 X79.545 Y103.445 E5.05188
G1 X80.295 Y103.134 E5.07703
G1 X80.940 Y102.639 E5.10218
G1 X81.435 Y101.994 E5.12733
G1 X81.727 Y101.290 E5.15093
G1 X81.854 Y100.454 E5.17709
G1 X81.746 Y99.632 E5.20275
G1 X81.435 Y98.881 E5.22790
G1 X80.940 Y98.236 E5.25305
G1 X80.295 Y97.741 E5.27820
G1 X79.529 Y97.423 E5.30386
G1 X78.689 Y97.330 E5.33002
G1 X77.933 Y97.430 E5.35362
G1 X77.182 Y97.741 E5.37877
G1 X76.537 Y98.236 E5.40391
G1 X76.116 Y98.784 E5.42530
G1 X75.862 Y98.698 E5.43361
G1 X75.862 Y81.362 E5.97000
G1 X124.138 Y81.369 E7.46373
G1 X124.138 Y97.669 E7.96808
G1 X123.544 Y97.423 E7.98797
G1 X122.704 Y97.330 E8.01412
G1 X121.948 Y97.430 E8.03772
G1 X121.197 Y97.741 E8.06287
G1 X120.552 Y98.236 E8.08802
G1 X119.971 Y98.993 E8.11754
G1 X119.717 Y98.906 E8.12585
G1 X119.717 Y88.900 E8.43546
G1 X82.400 Y88.900 E9.59008
G1 X82.400 Y96.100 E9.81285
G1 X83.313 Y96.100 E9.84108
G1 X83.379 Y96.602 E9.85676
G1 X83.650 Y97.257 E9.87868
G1 X84.091 Y97.832 E9.90111
G1 X84.681 Y98.266 E9.92377
G1 X85.298 Y98.521 E9.94442
G1 X86.000 Y98.614 E9.96633
G1 X86.702 Y98.521 E9.98825
G1 X87.357 Y98.250 E10.01017
G1 X87.919 Y97.819 E10.03209
G1 X88.350 Y97.257 E10.05401
G1 X88.621 Y96.602 E10.07593
G1 X88.687 Y96.100 E10.09161
G1 X113.400 Y96.100 E10.85626
G1 X113.400 Y104.400 E11.11309
G1 X82.400 Y104.400 E12.07227
G1 X82.400 Y111.100 E12.27956
G1 X119.642 Y111.100 E13.43187
G1 X124.667 Y119.199 F7800.000
G1 X124.589 Y119.244 E13.43465 F1800.000
G1 X124.457 Y119.263 E13.43876
G1 X75.543 Y119.263 E14.95225
G1 X75.351 Y119.216 E14.95835
G1 X75.256 Y119.089 E14.96326
G1 X75.237 Y118.957 E14.96737
G1 X75.237 Y81.043 E16.14050
G1 X75.256 Y80.911 E16.14461
G1 X75.301 Y80.833 E16.14739
G1 X75.411 Y80.756 E16.15155
G1 X75.542 Y80.737 E16.15565
G1 X124.544 Y80.744 E17.67182
G1 X124.667 Y80.801 E17.67600
G1 X124.744 Y80.911 E17.68016
G1 X124.763 Y81.043 E17.68426
G1 X124.763 Y98.876 E18.23604
G1 X123.995 Y98.287 E18.26598
G1 X123.387 Y98.035 E18.28635
G1 X122.710 Y97.960 E18.30741
G1 X122.111 Y98.039 E18.32612
G1 X121.512 Y98.287 E18.34618
G1 X120.998 Y98.681 E18.36624
G1 X120.603 Y99.196 E18.38630
G1 X120.355 Y99.795 E18.40636
G1 X120.270 Y100.437 E18.42642
G1 X120.355 Y101.080 E18.44647
G1 X120.603 Y101.679 E18.46653
G1 X120.998 Y102.193 E18.48659
G1 X121.512 Y102.588 E18.50665
G1 X122.111 Y102.836 E18.52671
G1 X122.754 Y102.921 E18.54677
G1 X123.396 Y102.836 E18.56682
G1 X123.995 Y102.588 E18.58688
G1 X124.763 Y101.999 E18.61682
G1 X124.763 Y118.957 E19.14154
G1 X124.755 Y119.045 E19.14426
G1 X124.716 Y119.142 E19.14750
G1 X125.070 Y119.679 F7800.000
G1 X124.943 Y119.768 E19.15229 F1800.000
G1 X124.803 Y119.833 E19.15707
G1 X124.654 Y119.873 E19.16185
G1 X124.485 Y119.888 E19.16710
G1 X75.515 Y119.888 E20.68228
G1 X75.355 Y119.874 E20.68727
G1 X75.128 Y119.801 E20.69465
G1 X74.930 Y119.679 E20.70183
G1 X74.821 Y119.570 E20.70661
G1 X74.732 Y119.443 E20.71139
G1 X74.667 Y119.303 E20.71617
G1 X74.627 Y119.154 E20.72095
G1 X74.612 Y118.985 E20.72621
G1 X74.612 Y81.015 E21.90103
G1 X74.627 Y80.846 E21.90629
G1 X74.667 Y80.697 E21.91107
G1 X74.732 Y80.557 E21.91585
G1 X74.821 Y80.430 E21.92063
G1 X74.930 Y80.321 E21.92542
G1 X75.057 Y80.232 E21.93020
G1 X75.197 Y80.167 E21.93498
G1 X75.346 Y80.127 E21.93976
G1 X75.515 Y80.112 E21.94502
G1 X124.569 Y80.120 E23.46281
G1 X124.803 Y80.167 E23.47020
G1 X124.943 Y80.232 E23.47498
G1 X125.070 Y80.321 E23.47976
G1 X125.179 Y80.430 E23.48454
G1 X125.268 Y80.557 E23.48932
G1 X125.333 Y80.697 E23.49410
G1 X125.373 Y80.846 E23.49889
G1 X125.388 Y81.015 E23.50414
G1 X125.388 Y118.985 E24.67897
G1 X125.373 Y119.154 E24.68422
G1 X125.333 Y119.303 E24.68900
G1 X125.268 Y119.443 E24.69378
G1 X125.123 Y119.626 E24.70100
G1 X124.925 Y119.626 F7800.000
G1 X119.757 Y101.625 F7800.000
G1 X119.681 Y100.401 E24.71769 F1800.000
G1 X119.757 Y99.250 E24.73340
G1 E22.73340 F2400.00000
G92 E0
G1 X109.217 Y103.730 F7800.000
G1 E2.00000 F2400.00000
G1 X107.963 Y103.807 E2.01709 F1800.000
G1 X106.783 Y103.730 E2.03319
G1 X109.569 Y103.358 F7800.000
G1 X110.245 Y104.033 E2.06288 F1800.000
G1 X111.133 Y104.033 E2.09049
G1 X109.916 Y102.816 E2.14397
G1 X110.355 Y102.367 E2.16349
G1 X112.021 Y104.033 E2.23674
G1 X112.909 Y104.033 E2.26435
G1 X110.718 Y101.843 E2.36065
G1 X110.969 Y101.205 E2.38194
G1 X113.033 Y103.269 E2.47270
G1 X113.033 Y102.381 E2.50031
G1 X111.077 Y100.426 E2.58628
G1 X110.906 Y99.366 E2.61965
G1 X113.033 Y101.493 E2.71316
G1 X113.033 Y100.606 E2.74077
G1 X108.894 Y96.467 E2.92272
G1 X109.134 Y97.594 E2.95853
G1 X108.007 Y96.467 E3.00808
G1 X108.074 Y97.423 E3.03786
G1 X107.119 Y96.467 E3.07987
G1 X106.231 Y96.467 E3.10747
G1 X107.291 Y97.528 E3.15411
G1 X106.664 Y97.788 E3.17524
G1 X105.343 Y96.467 E3.23331
G1 X104.455 Y96.467 E3.26091
G1 X106.133 Y98.145 E3.33470
G1 X105.683 Y98.584 E3.35423
G1 X103.567 Y96.467 E3.44728
G1 X102.679 Y96.467 E3.47489
G1 X105.306 Y99.095 E3.59041
G1 X105.056 Y99.732 E3.61170
G1 X101.791 Y96.467 E3.75525
G1 X100.903 Y96.467 E3.78286
G1 X104.933 Y100.497 E3.96002
G1 X105.032 Y101.484 E3.99088
G1 X100.015 Y96.467 E4.21145
G1 X99.127 Y96.467 E4.23906
G1 X106.421 Y103.761 E4.55976
G1 X105.805 Y104.033 E4.58069
G1 X98.239 Y96.467 E4.91333
G1 X97.351 Y96.467 E4.94094
G1 X104.917 Y104.033 E5.27358
G1 X104.029 Y104.033 E5.30118
G1 X96.463 Y96.467 E5.63382
G1 X95.576 Y96.467 E5.66142
G1 X103.141 Y104.033 E5.99406
G1 X102.253 Y104.033 E6.02167
G1 X94.688 Y96.467 E6.35430
G1 X93.800 Y96.467 E6.38191
G1 X101.365 Y104.033 E6.71455
G1 X100.478 Y104.033 E6.74215
G1 X92.912 Y96.467 E7.07479
G1 X92.024 Y96.467 E7.10239
G1 X99.590 Y104.033 E7.43503
G1 X98.702 Y104.033 E7.46264
G1 X91.136 Y96.467 E7.79527
G1 X90.248 Y96.467 E7.82288
G1 X97.814 Y104.033 E8.15552
G1 X96.926 Y104.033 E8.18312
G1 X89.360 Y96.467 E8.51576
G1 X88.867 Y96.862 E8.53540
G1 X96.038 Y104.033 E8.85067
G1 X95.150 Y104.033 E8.87827
G1 X88.584 Y97.467 E9.16693
G1 X88.199 Y97.970 E9.18662
G1 X94.262 Y104.033 E9.45320
G1 X93.374 Y104.033 E9.48080
G1 X87.713 Y98.372 E9.72968
G1 X87.145 Y98.691 E9.74995
G1 X92.486 Y104.033 E9.98479
G1 X91.598 Y104.033 E10.01240
G1 X86.471 Y98.906 E10.23782
G1 X85.632 Y98.954 E10.26396
G1 X90.710 Y104.033 E10.48726
G1 X89.822 Y104.033 E10.51486
G1 X84.404 Y98.614 E10.75310
G1 X83.286 Y97.496 F7800.000
G1 X76.229 Y90.440 E11.06335 F1800.000
G1 X76.229 Y89.552 E11.09095
