; generated by Slic3r 1.1.7 on 2015-02-03 at 17:21:25

; perimeters extrusion width = 0.50mm
; infill extrusion width = 0.70mm
; solid infill extrusion width = 0.70mm
; top infill extrusion width = 0.70mm

G21 ; set units to millimeters
M107
M104 S230 ; set temperature
G28 ; home all axes
G1 Z5 F5000 ; lift nozzle

M109 S230 ; wait for temperature to be reached
G90 ; use absolute coordinates
G92 E0
M82 ; use absolute distances for extrusion
G1 F1800.000 E-2.00000
G92 E0
G1 Z0.500 F7800.000
G1 X39.791 Y73.439 F7800.000
G1 E2.00000 F1800.000
G1 X40.031 Y73.327 E2.01672 F1080.000
G1 X41.160 Y72.916 E2.09258
G1 X41.415 Y72.847 E2.10928
G1 X42.599 Y72.639 E2.18516
G1 X43.091 Y72.600 E2.21636
G1 X107.537 Y69.129 E6.29174
G1 X157.138 Y69.155 E9.42381
G1 X158.002 Y69.231 E9.47860 F1080.000
G1 X159.186 Y69.440 E9.55446
G1 X160.024 Y69.664 E9.60926
G1 X161.153 Y70.075 E9.68512
G1 X161.939 Y70.442 E9.73993
G1 X162.980 Y71.043 E9.81579
G1 X163.691 Y71.540 E9.87058
G1 X164.611 Y72.313 E9.94646
G1 X165.225 Y72.926 E10.00125
G1 X165.997 Y73.847 E10.07711
G1 X166.495 Y74.557 E10.13191
G1 X167.095 Y75.598 E10.20778
G1 X167.462 Y76.384 E10.26257
G1 X167.873 Y77.513 E10.33844
G1 X168.098 Y78.352 E10.39323
G1 X168.306 Y79.535 E10.46910
G1 X168.408 Y81.000 E10.56184
G1 X168.382 Y119.601 E12.99931
G1 X168.306 Y120.465 E13.05410
G1 X168.098 Y121.648 E13.12997
G1 X167.873 Y122.487 E13.18477
G1 X167.462 Y123.616 E13.26063
G1 X167.095 Y124.402 E13.31543
G1 X166.495 Y125.443 E13.39130
G1 X165.997 Y126.153 E13.44609
G1 X165.225 Y127.074 E13.52196
G1 X164.611 Y127.687 E13.57675
G1 X163.691 Y128.460 E13.65262
G1 X162.980 Y128.957 E13.70741
G1 X161.939 Y129.558 E13.78328
G1 X161.153 Y129.925 E13.83808
G1 X160.024 Y130.336 E13.91394
G1 X159.186 Y130.560 E13.96874
G1 X158.002 Y130.769 E14.04461
G1 X156.537 Y130.871 E14.13735
G1 X107.165 Y130.861 E17.25495
G1 X42.862 Y127.384 E21.32135
G1 X42.598 Y127.361 E21.33807
G1 X41.415 Y127.153 E21.41393
G1 X41.160 Y127.084 E21.43063
G1 X40.031 Y126.673 E21.50650
G1 X39.791 Y126.561 E21.52321
G1 X38.750 Y125.961 E21.59909
G1 X38.534 Y125.809 E21.61579
G1 X37.613 Y125.037 E21.69164
G1 X37.426 Y124.850 E21.70835
G1 X36.654 Y123.929 E21.78423
G1 X36.502 Y123.712 E21.80094
G1 X35.901 Y122.672 E21.87680
G1 X35.790 Y122.432 E21.89350
G1 X35.379 Y121.303 E21.96936
G1 X35.310 Y121.048 E21.98608
G1 X35.102 Y119.864 E22.06194
G1 X35.052 Y119.000 E22.11661
G1 X35.079 Y80.399 E24.55407
G1 X35.102 Y80.136 E24.57078
G1 X35.310 Y78.952 E24.64665
G1 X35.379 Y78.697 E24.66338
G1 X35.790 Y77.568 E24.73923
G1 X35.901 Y77.328 E24.75594
G1 X36.502 Y76.288 E24.83179
G1 X36.654 Y76.071 E24.84853
G1 X37.426 Y75.151 E24.92437
G1 X37.614 Y74.963 E24.94111
G1 X38.534 Y74.191 E25.01695
G1 X38.750 Y74.039 E25.03366
G1 X39.726 Y73.476 E25.10478
G1 F1800.000 E23.10478
G92 E0
G1 X155.916 Y79.849 F7800.000
G1 E2.00000 F1800.000
G1 X155.916 Y80.446 E2.03772 F1080.000
G1 X156.518 Y80.875 E2.08438
G1 X157.000 Y81.460 E2.13226
G1 X157.315 Y82.150 E2.18014
G1 X157.440 Y82.898 E2.22803
G1 X157.368 Y83.652 E2.27591
G1 X157.102 Y84.363 E2.32379
G1 X156.662 Y84.980 E2.37167
G1 X156.077 Y85.463 E2.41955
G1 X155.387 Y85.778 E2.46744
G1 X154.640 Y85.903 E2.51531
G1 X153.885 Y85.830 E2.56320
G1 X153.174 Y85.565 E2.61108
G1 X152.557 Y85.125 E2.65896
G1 X152.428 Y84.969 E2.67177
G1 X152.074 Y84.540 E2.70684
G1 X151.760 Y83.850 E2.75473
G1 X151.634 Y83.102 E2.80261
G1 X151.707 Y82.348 E2.85049
G1 X151.972 Y81.637 E2.89837
G1 X152.412 Y81.020 E2.94626
G1 X152.997 Y80.537 E2.99414
G1 X153.687 Y80.222 E3.04202
G1 X155.842 Y79.861 E3.17999
G1 X155.023 Y80.904 F7800.000
G1 X155.023 Y81.060 E3.18989 F756.000
G1 X155.478 Y81.230 E3.22051
G1 X155.904 Y81.534 E3.25356
G1 X156.237 Y81.937 E3.28660
G1 X156.454 Y82.413 E3.31964
G1 X156.540 Y82.929 E3.35268
G1 X156.490 Y83.450 E3.38571
G1 X156.307 Y83.940 E3.41875
G1 X156.004 Y84.366 E3.45179
G1 X155.600 Y84.699 E3.48483
G1 X155.124 Y84.917 E3.51787
G1 X154.608 Y85.003 E3.55091
G1 X154.087 Y84.953 E3.58395
G1 X153.597 Y84.770 E3.61699
G1 X153.171 Y84.466 E3.65003
G1 X152.838 Y84.063 E3.68307
G1 X152.621 Y83.587 E3.71611
G1 X152.607 Y83.502 E3.72150
G1 X152.534 Y83.071 E3.74915
G1 X152.584 Y82.550 E3.78219
G1 X152.767 Y82.060 E3.81523
G1 X153.071 Y81.634 E3.84827
G1 X153.474 Y81.301 E3.88131
G1 X153.951 Y81.083 E3.91435
G1 X154.949 Y80.916 E3.97829 F756.000
G1 X153.895 Y80.587 F7800.000
G1 X137.832 Y97.654 F7800.000
G1 X138.205 Y97.168 E4.01701 F1080.000
G1 X139.035 Y96.531 E4.08303
G1 X140.001 Y96.131 E4.14905
G1 X141.037 Y95.995 E4.21507
G1 X142.074 Y96.131 E4.28109
G1 X143.040 Y96.531 E4.34712
G1 X143.869 Y97.168 E4.41314
G1 X144.506 Y97.998 E4.47917
G1 X144.906 Y98.963 E4.54519
G1 X145.042 Y100.000 E4.61120
G1 X144.906 Y101.037 E4.67723
G1 X144.506 Y102.003 E4.74325
G1 X143.869 Y102.832 E4.80927
G1 X143.040 Y103.469 E4.87530
G1 X142.074 Y103.869 E4.94132
G1 X141.037 Y104.005 E5.00734
G1 X140.001 Y103.869 E5.07336
G1 X139.035 Y103.469 E5.13938
G1 X138.205 Y102.832 E5.20540
G1 X137.832 Y102.346 E5.24412
G1 X137.498 Y103.153 E5.29928
G1 X136.496 Y104.458 E5.40321
G1 X135.190 Y105.460 E5.50715
G1 X133.669 Y106.090 E5.61108
G1 X132.037 Y106.305 E5.71502
G1 X130.405 Y106.090 E5.81895
G1 X128.885 Y105.460 E5.92289
G1 X127.579 Y104.458 E6.02682
G1 X126.577 Y103.153 E6.13076
G1 X126.243 Y102.346 E6.18591
G1 X125.869 Y102.832 E6.22463
G1 X125.040 Y103.469 E6.29066
G1 X124.074 Y103.869 E6.35668
G1 X123.037 Y104.005 E6.42270
G1 X122.001 Y103.869 E6.48872
G1 X121.035 Y103.469 E6.55475
G1 X120.205 Y102.832 E6.62076
G1 X119.569 Y102.003 E6.68679
G1 X119.169 Y101.037 E6.75281
G1 X119.032 Y100.000 E6.81883
G1 X119.169 Y98.963 E6.88486
G1 X119.569 Y97.997 E6.95088
G1 X120.205 Y97.168 E7.01689
G1 X121.035 Y96.531 E7.08291
G1 X122.001 Y96.131 E7.14894
G1 X123.037 Y95.995 E7.21495
G1 X124.074 Y96.131 E7.28098
G1 X125.040 Y96.531 E7.34700
G1 X125.869 Y97.168 E7.41302
G1 X126.243 Y97.654 E7.45174
G1 X126.577 Y96.847 E7.50690
G1 X127.579 Y95.542 E7.61084
G1 X128.885 Y94.540 E7.71477
G1 X130.405 Y93.910 E7.81870
G1 X132.037 Y93.695 E7.92264
G1 X133.669 Y93.910 E8.02658
G1 X135.190 Y94.540 E8.13051
G1 X136.496 Y95.542 E8.23445
G1 X137.498 Y96.847 E8.33838
G1 X137.803 Y97.585 E8.38881
G1 X138.000 Y99.484 F7800.000
G1 X138.038 Y99.196 E8.40715 F1080.000
G1 X138.348 Y98.448 E8.45833
G1 X138.842 Y97.805 E8.50951
G1 X139.485 Y97.311 E8.56069
G1 X140.234 Y97.001 E8.61187
G1 X141.037 Y96.895 E8.66304
G1 X141.841 Y97.001 E8.71422
G1 X142.590 Y97.311 E8.76540
G1 X143.233 Y97.805 E8.81658
G1 X143.726 Y98.448 E8.86777
G1 X144.036 Y99.196 E8.91895
G1 X144.142 Y100.000 E8.97012
G1 X144.036 Y100.804 E9.02130
G1 X143.726 Y101.552 E9.07248
G1 X143.233 Y102.195 E9.12366
G1 X142.590 Y102.689 E9.17484
G1 X141.841 Y102.999 E9.22602
G1 X141.037 Y103.105 E9.27720
G1 X140.234 Y102.999 E9.32838
G1 X139.485 Y102.689 E9.37956
G1 X138.842 Y102.195 E9.43073
G1 X138.348 Y101.552 E9.48191
G1 X138.038 Y100.804 E9.53309
G1 X138.000 Y100.516 E9.55144
G1 X137.374 Y100.516 E9.59098
G1 X137.258 Y101.399 E9.64724
G1 X136.718 Y102.702 E9.73634
G1 X135.859 Y103.822 E9.82543
G1 X134.740 Y104.681 E9.91452
G1 X133.436 Y105.221 E10.00362
G1 X132.037 Y105.405 E10.09271
G1 X130.638 Y105.221 E10.18180
G1 X129.335 Y104.681 E10.27089
G1 X128.215 Y103.822 E10.35999
G1 X127.357 Y102.702 E10.44908
G1 X126.817 Y101.399 E10.53817
G1 X126.700 Y100.515 E10.59443
G1 X126.074 Y100.515 E10.63398
G1 X126.036 Y100.804 E10.65233
G1 X125.726 Y101.552 E10.70351
G1 X125.233 Y102.195 E10.75469
G1 X124.589 Y102.689 E10.80587
G1 X123.841 Y102.999 E10.85705
G1 X123.037 Y103.105 E10.90823
G1 X122.234 Y102.999 E10.95940
G1 X121.485 Y102.689 E11.01059
G1 X120.842 Y102.195 E11.06176
G1 X120.348 Y101.552 E11.11294
G1 X120.038 Y100.804 E11.16412
G1 X119.932 Y100.000 E11.21530
G1 X120.038 Y99.196 E11.26648
G1 X120.348 Y98.448 E11.31766
G1 X120.842 Y97.805 E11.36884
G1 X121.485 Y97.311 E11.42001
G1 X122.234 Y97.001 E11.47119
G1 X123.037 Y96.895 E11.52237
G1 X123.841 Y97.001 E11.57355
G1 X124.590 Y97.311 E11.62473
G1 X125.233 Y97.805 E11.67591
G1 X125.726 Y98.448 E11.72709
G1 X126.036 Y99.196 E11.77827
G1 X126.074 Y99.485 E11.79662
G1 X126.700 Y99.485 E11.83617
G1 X126.817 Y98.601 E11.89243
G1 X127.357 Y97.298 E11.98152
G1 X128.215 Y96.178 E12.07062
G1 X129.335 Y95.319 E12.15971
G1 X130.638 Y94.779 E12.24880
G1 X132.037 Y94.595 E12.33789
G1 X133.436 Y94.779 E12.42699
G1 X134.740 Y95.319 E12.51608
G1 X135.859 Y96.178 E12.60517
G1 X136.718 Y97.298 E12.69427
G1 X137.258 Y98.601 E12.78336
G1 X137.374 Y99.484 E12.83962
G1 X137.925 Y99.484 E12.87443
G1 F1800.000 E10.87443
G92 E0
G1 X125.242 Y100.000 F7800.000
G1 E2.00000 F1800.000
G1 X125.166 Y100.571 E2.03634 F756.000
G1 X124.946 Y101.102 E2.07267
G1 X124.596 Y101.559 E2.10901
G1 X124.139 Y101.909 E2.14535
G1 X123.608 Y102.129 E2.18168
G1 X123.037 Y102.204 E2.21802
G1 X122.467 Y102.129 E2.25436
G1 X122.016 Y101.943 E2.28514
G1 X121.935 Y101.909 E2.29069
G1 X121.479 Y101.559 E2.32703
G1 X121.128 Y101.102 E2.36337
G1 X120.908 Y100.571 E2.39970
G1 X120.833 Y100.000 E2.43604
G1 X120.908 Y99.429 E2.47238
G1 X121.128 Y98.898 E2.50871
G1 X121.478 Y98.441 E2.54505
G1 X121.935 Y98.091 E2.58138
G1 X122.467 Y97.871 E2.61772
G1 X123.037 Y97.796 E2.65406
G1 X123.520 Y97.859 E2.68484
G1 X123.608 Y97.871 E2.69039 F756.000
G1 X124.139 Y98.091 E2.72673
G1 X124.596 Y98.441 E2.76307
G1 X124.946 Y98.898 E2.79941
G1 X125.166 Y99.429 E2.83574
G1 X125.232 Y99.926 E2.86734
G1 X123.603 Y97.889 F7800.000
G1 F1800.000 E0.86734
G92 E0
G1 X138.833 Y100.000 F7800.000
G1 E2.00000 F1800.000
G1 X138.908 Y99.430 E2.03634 F756.000
G1 X139.128 Y98.898 E2.07267
G1 X139.478 Y98.441 E2.10901
G1 X139.935 Y98.091 E2.14535
G1 X140.467 Y97.871 E2.18168
G1 X141.037 Y97.796 E2.21802
G1 X141.520 Y97.859 E2.24880
G1 X141.608 Y97.871 E2.25436 F756.000
G1 X142.139 Y98.091 E2.29069
G1 X142.596 Y98.441 E2.32703
G1 X142.946 Y98.898 E2.36337
G1 X143.166 Y99.430 E2.39970
G1 X143.242 Y100.000 E2.43604
G1 X143.166 Y100.571 E2.47238
G1 X142.946 Y101.102 E2.50871
G1 X142.596 Y101.559 E2.54505
G1 X142.139 Y101.909 E2.58139
G1 X141.608 Y102.129 E2.61772
G1 X141.037 Y102.204 E2.65406
G1 X140.467 Y102.129 E2.69040
G1 X139.935 Y101.909 E2.72673
G1 X139.479 Y101.559 E2.76307
G1 X139.128 Y101.102 E2.79940
G1 X138.908 Y100.571 E2.83574
G1 X138.843 Y100.074 E2.86734
G1 F1800.000 E0.86734
G92 E0
G1 X141.577 Y97.926 F7800.000
G1 X136.541 Y100.000 F7800.000
G1 E2.00000 F1800.000
G1 X136.388 Y101.166 E2.07425 F756.000
G1 X136.343 Y101.275 E2.08170
G1 X135.938 Y102.252 E2.14850
G1 X135.222 Y103.185 E2.22275
G1 X134.289 Y103.901 E2.29700
G1 X133.203 Y104.351 E2.37125
G1 X132.037 Y104.504 E2.44550
G1 X130.871 Y104.351 E2.51975
G1 X129.785 Y103.901 E2.59400
G1 X128.852 Y103.185 E2.66825
G1 X128.136 Y102.252 E2.74250
G1 X127.686 Y101.166 E2.81676
G1 X127.533 Y100.000 E2.89101
G1 X127.686 Y98.834 E2.96526
G1 X128.136 Y97.748 E3.03951
G1 X128.852 Y96.815 E3.11376
G1 X129.785 Y96.099 E3.18801
G1 X130.871 Y95.649 E3.26226
G1 X132.037 Y95.496 E3.33651
G1 X133.086 Y95.634 E3.40331
G1 X133.203 Y95.649 E3.41076 F756.000
G1 X134.289 Y96.099 E3.48501
G1 X135.222 Y96.815 E3.55926
G1 X135.938 Y97.748 E3.63351
G1 X136.388 Y98.834 E3.70776
G1 X136.532 Y99.926 E3.77728
G1 F1800.000 E1.77728
G92 E0
G1 X133.065 Y95.518 F7800.000
G1 X112.768 Y114.990 F7800.000
G1 E2.00000 F1800.000
G1 X113.178 Y115.895 E2.06273 F1080.000
G1 X113.340 Y116.875 E2.12545
G1 X113.243 Y117.863 E2.18818
G1 X112.893 Y118.793 E2.25090
G1 X112.648 Y119.135 E2.27748
G1 X112.648 Y119.327 E2.28958
G1 X111.547 Y120.231 E2.37954
G1 X110.642 Y120.641 E2.44227
G1 X109.662 Y120.803 E2.50499
G1 X108.674 Y120.706 E2.56772
G1 X107.744 Y120.356 E2.63044
G1 X106.937 Y119.778 E2.69317
G1 X106.306 Y119.010 E2.75589
G1 X105.896 Y118.105 E2.81862
G1 X105.734 Y117.125 E2.88135
G1 X105.831 Y116.137 E2.94407
G1 X106.181 Y115.207 E3.00679
G1 X106.759 Y114.399 E3.06952
G1 X107.527 Y113.769 E3.13224
G1 X108.432 Y113.359 E3.19496
G1 X109.412 Y113.197 E3.25768
G1 X110.082 Y113.263 E3.30018
G1 X110.400 Y113.294 E3.32041 F1080.000
G1 X111.330 Y113.644 E3.38314
G1 X112.138 Y114.222 E3.44586
G1 X112.720 Y114.932 E3.50385
G1 X112.004 Y115.466 F7800.000
G1 X112.317 Y116.156 E3.55173 F1080.000
G1 X112.440 Y116.904 E3.59962
G1 X112.366 Y117.659 E3.64750
G1 X112.099 Y118.369 E3.69538
G1 X111.756 Y118.848 E3.73264
G1 X111.756 Y118.905 E3.73620
G1 X111.072 Y119.466 E3.79208
G1 X110.381 Y119.779 E3.83997
G1 X109.633 Y119.903 E3.88785
G1 X108.878 Y119.829 E3.93573
G1 X108.168 Y119.562 E3.98361
G1 X107.552 Y119.120 E4.03149
G1 X107.071 Y118.534 E4.07938
G1 X106.758 Y117.844 E4.12726
G1 X106.634 Y117.096 E4.17514
G1 X106.708 Y116.341 E4.22302
G1 X106.975 Y115.631 E4.27091
G1 X107.417 Y115.015 E4.31879
G1 X108.003 Y114.534 E4.36667
G1 X108.693 Y114.221 E4.41455
G1 X109.241 Y114.130 E4.44962
G1 X109.441 Y114.097 E4.46243 F1080.000
G1 X110.196 Y114.171 E4.51032
G1 X110.906 Y114.438 E4.55820
G1 X111.522 Y114.879 E4.60608
G1 X111.956 Y115.408 E4.64923
G1 X111.239 Y115.941 F7800.000
G1 X111.455 Y116.418 E4.68227 F756.000
G1 X111.540 Y116.934 E4.71531
G1 X111.489 Y117.455 E4.74835
G1 X111.305 Y117.944 E4.78138
G1 X111.000 Y118.370 E4.81443
G1 X110.596 Y118.702 E4.84746
G1 X110.119 Y118.918 E4.88051
G1 X109.687 Y118.989 E4.90815
G1 X109.603 Y119.003 E4.91354
G1 X109.082 Y118.952 E4.94658
G1 X108.593 Y118.768 E4.97962
G1 X108.167 Y118.463 E5.01266
G1 X107.835 Y118.059 E5.04570
G1 X107.619 Y117.582 E5.07874
G1 X107.534 Y117.066 E5.11178
G1 X107.585 Y116.545 E5.14482
G1 X107.769 Y116.056 E5.17786
G1 X108.074 Y115.630 E5.21090
G1 X108.478 Y115.298 E5.24394
G1 X108.955 Y115.082 E5.27698
G1 X109.471 Y114.997 E5.31002
G1 X109.907 Y115.040 E5.33767
G1 X109.992 Y115.048 E5.34306 F756.000
G1 X110.482 Y115.232 E5.37610
G1 X110.907 Y115.537 E5.40914
G1 X111.191 Y115.883 E5.43744
G1 X109.881 Y114.958 F7800.000
G1 F1800.000 E3.43744
G92 E0
G1 X155.805 Y78.962 F7800.000
G1 E2.00000 F1800.000
G1 X153.423 Y79.362 E2.15248 F1080.000
G1 X152.520 Y79.774 E2.21520
G1 X151.753 Y80.406 E2.27793
G1 X151.177 Y81.215 E2.34065
G1 X150.829 Y82.145 E2.40338
G1 X150.734 Y83.134 E2.46610
G1 X150.899 Y84.114 E2.52883
G1 X151.311 Y85.018 E2.59156
G1 X151.943 Y85.784 E2.65427
G1 X152.752 Y86.360 E2.71700
G1 X153.682 Y86.708 E2.77972
G1 X154.001 Y86.738 E2.79996
G1 X154.671 Y86.803 E2.84245
G1 X155.651 Y86.638 E2.90517
G1 X156.555 Y86.226 E2.96790
G1 X157.321 Y85.594 E3.03062
G1 X157.898 Y84.785 E3.09335
G1 X158.245 Y83.855 E3.15607
G1 X158.340 Y82.866 E3.21879
G1 X158.176 Y81.886 E3.28152
G1 X157.763 Y80.983 E3.34424
G1 X157.131 Y80.216 E3.40697
G1 X156.809 Y79.986 E3.43200
G1 X156.809 Y78.305 E3.53819
G1 X157.455 Y78.478 E3.58045
G1 X157.879 Y78.676 E3.61000
G1 X158.262 Y78.944 E3.63954
G1 X158.593 Y79.275 E3.66908
G1 X158.862 Y79.658 E3.69863
G1 X159.059 Y80.082 E3.72817
G1 X159.180 Y80.534 E3.75771
G1 X159.230 Y81.100 E3.79358
G1 X159.230 Y118.900 E6.18051
G1 X159.180 Y119.466 E6.21638
G1 X159.059 Y119.918 E6.24592
G1 X158.862 Y120.342 E6.27546
G1 X158.593 Y120.725 E6.30500
G1 X158.262 Y121.056 E6.33455
G1 X157.879 Y121.324 E6.36409
G1 X157.455 Y121.522 E6.39363
G1 X157.003 Y121.643 E6.42317
G1 X156.437 Y121.693 E6.45904
G1 X107.637 Y121.693 E9.54057
G1 X107.071 Y121.643 E9.57644
G1 X106.619 Y121.522 E9.60598
G1 X106.195 Y121.324 E9.63553
G1 X105.779 Y121.023 E9.66801
G1 X105.481 Y120.725 E9.69457
G1 X105.213 Y120.342 E9.72411
G1 X105.015 Y119.918 E9.75366
G1 X104.894 Y119.466 E9.78320
G1 X104.844 Y118.900 E9.81907
G1 X104.844 Y81.100 E12.20599
G1 X104.894 Y80.534 E12.24186
G1 X105.015 Y80.082 E12.27140
G1 X105.240 Y79.619 E12.30389
G1 X105.481 Y79.275 E12.33045
G1 X105.812 Y78.944 E12.35999
G1 X106.195 Y78.676 E12.38953
G1 X106.619 Y78.478 E12.41908
G1 X107.071 Y78.357 E12.44862
G1 X107.637 Y78.307 E12.48449
G1 X155.750 Y78.307 E15.52264
G1 X155.799 Y78.887 E15.55940
G1 X155.805 Y77.415 F7800.000
G1 X156.476 Y77.415 E15.60180 F1080.000
G1 X157.159 Y77.474 E15.64506
G1 X157.762 Y77.636 E15.68446
G1 X158.327 Y77.900 E15.72387
G1 X158.838 Y78.257 E15.76328
G1 X159.280 Y78.699 E15.80268
G1 X159.638 Y79.210 E15.84209
G1 X159.901 Y79.776 E15.88149
